X: 1
T: Miss Annie Robertson
C: Robert Mackintosh
R: strathspey, shottish
Z: 2004 John Chambers <jc:trillian.mit.edu>
M: C
L: 1/8
K: D
[|"D"F>A F>D F<A A2 | "G"G>B G>E "Em"G<B B2 \
| "D"F<A A>d "G"G<B B>e | "A7"c>A B>c "D"d2 d2 |
| "D"F/G/A F>D F<A A2 | "E(m)"G<B e>d "A7"c<A A2 \
| "D"F<A A>d "G"G<B B>e | "A7"c>A B>c "D"d2 de |]
[|"D"f<d dc/d/ "A"e<c c2 | "Bm"d<B "E7"e>d "A"c<A "D7"A>=c \
| "G"B<G d>B "D"A<F d>F | "Em"G>F E>D "A7"C<E E>e |
| "D"f<a d>f "A"e<a ce | "Bm"d<B "E7"e>d "A"c<A "D7"A>=c \
| "G"B<g d>B "D"A<f d>A | "Em"B<e "A7"A>c "D"d2 d |]
